Adwaita++-Dark/actions/16/adjustcurves.svg

<svg height="16" viewBox="0 0 16 16" width="16" xmlns="http://www.w3.org/2000/svg">
  <path d="m3 1v10h-2v2h2v2h2v-2h10v-2h-10v-1.5l2.90625-2.1796875 2.121094 2.1210937 4.972656-5.3535156v-2.9394531l-5.0273438 5.4101563-1.8789062-1.8789063-3.09375 2.3203125v-6z" fill="#e6ddff"/>
</svg>

<svg xmlns="http://www.w3.org/2000/svg" width="16" height="16" version="1.1" viewBox="0 0 16 16">
 <defs>
  <style id="current-color-scheme" type="text/css">
   .ColorScheme-Text { color:#E6DDFF; } .ColorScheme-Highlight { color:#4285f4; }
  </style>
 </defs>
 <path style="fill:currentColor" class="ColorScheme-Text" d="M 3 1 L 3 11 L 1 11 L 1 13 L 3 13 L 3 15 L 5 15 L 5 13 L 15 13 L 15 11 L 5 11 L 5 9.5 L 7.90625 7.3203125 L 10.027344 9.4414062 L 15 4.0878906 L 15 1.1484375 L 9.9726562 6.5585938 L 8.09375 4.6796875 L 5 7 L 5 1 L 3 1 z"/>
</svg>
